svg/video_call.svg

<svg xmlns="http://www.w3.org/2000/svg" viewBox="0 0 32 32"><path d="M2 8v16h22v-3.375l4.563 2.28 1.437.72V8.375l-1.438.72L24 11.374V8H2zm2 2h18v12H4V10zm24 1.625v8.75l-4-2v-4.75l4-2z"/></svg>

<svg xmlns="http://www.w3.org/2000/svg" viewBox="0 0 32 32" enable-background="new 0 0 32 32"><path d="M 2 8 L 2 9 L 2 23 L 2 24 L 3 24 L 23 24 L 24 24 L 24 23 L 24 20.625 L 28.5625 22.90625 L 30 23.625 L 30 22 L 30 10 L 30 8.375 L 28.5625 9.09375 L 24 11.375 L 24 9 L 24 8 L 23 8 L 3 8 L 2 8 z M 4 10 L 22 10 L 22 12.375 L 22 13 L 22 19 L 22 19.625 L 22 22 L 4 22 L 4 10 z M 28 11.625 L 28 20.375 L 24 18.375 L 24 13.625 L 28 11.625 z" color="#000" overflow="visible" enable-background="accumulate"/></svg>
